X:1
T:Dear Lord and Father of Mankind
T:Text: John G. Whittier (1807-1892) Tune: Frederick C. Maker (1844-1927)
T:86 886 REST www.hymnary.org/text/dear_lord_and_father_of_mankind
T:Dear Lord and Father of Mankind
T:This hymn is in the public domain.  You may freely use this score for personal and congregational worship.  If you reproduce the score, please credit Hymnary.org as the source. 
T:This hymn is in the public domain.  You may freely use this score for personal and congregational worship.  If you reproduce the score, please credit Hymnary.org as the source. 
Z:This hymn is in the public domain.  You may freely use this score for personal and congregational worship.  If you reproduce the score, please credit Hymnary.org as the source.
%%score ( 1 2 ) ( 3 4 )
L:1/8
M:4/4
K:C
V:1 treble nm="Piano" snm="Pno."
V:2 treble 
V:3 bass nm="Piano" snm="Pno."
V:4 bass 
V:1
 [CE]2 | [CE]3 [CE] ^D2 [CE]2 | [CG]2 [CG]2 [C^F]2 [D=F]2 | [CE]3 C C2 D2 | [B,D]6 [CE]2 | %5
w: 3~O|Sab- bath rest by|Ga- li- lee! O|calm of hills a-|bove, where|
w: 1~Dear|Lord and Fa- ther|of man- kind, for-|give our foo- lish|ways! Re-|
w: 2~In|sim- ple trust like|theirs who heard, be-|side the Sy- rian|sea, the|
 [CE]3 [CF] [CG]2 [Ec]2 | [Dc]3 [DB] [CA]2 [CA]2 | [CA]3 [^CG] [DF]2 [D^F]2 | %8
w: Je- sus knelt to|share with thee the|si- lence of e-|
w: clothe us in our|right- ful mind; in|pu- rer lives thy|
w: gra- cious cal- ling|of the Lord, let|us, like them, with-|
 [DG]2 [B,=F]2 [CE]2 [CG]2 | C3 C C2 [=B,D]2 | [CE]6 |] %11
w: ter- ni- ty, in-|ter- pre- ted by|love!|
w: ser- vice find, in|dee- per rev- erence,|praise.|
w: out a word, rise|up and fol- low|thee.|
V:2
 x2 | x4 C2 x2 | x8 | x3 C C2 C2 | x8 | x8 | x8 | x8 | x8 | C3 C C2 x2 | x6 |] %11
V:3
 [C,G,]2 | [C,G,]3 [C,G,] [C,^F,]2 [C,G,]2 | [E,G,]2 [E,G,]2 [D,A,]2 [B,,G,]2 | %3
 [C,G,]3 [C,E,] [A,,E,]2 [A,,^F,]2 | [G,,G,]6 [C,G,]2 | [C,G,]3 [D,G,] [E,G,]2 [E,G,]2 | %6
 [E,^G,]3 [E,G,] A,2 A,2 | [F,A,]3 [E,A,] [D,A,]2 [C,A,]2 | [B,,G,]2 [G,,G,]2 [C,G,]2 [E,_B,]2 | %9
 [F,_B,]3 [F,A,] [F,A,]2 [F,_A,]2 | [C,G,]6 |] %11
V:4
 x2 | x8 | x8 | x8 | x8 | x8 | x4 A,2 =G,2 | x8 | x8 | x8 | x6 |] %11

